svg/color/gmt.svg

<svg width="32" height="32" viewBox="0 0 32 32" fill="none"
	xmlns="http://www.w3.org/2000/svg">
	<path d="M15.979 32C24.8156 32 31.979 24.8366 31.979 16C31.979 7.16344 24.8156 0 15.979 0C7.14245 0 -0.0209961 7.16344 -0.0209961 16C-0.0209961 24.8366 7.14245 32 15.979 32Z" fill="#E6BC7B"/>
	<path d="M14.677 7.32959C14.677 6.95326 14.3719 6.64819 13.9956 6.64819C13.6193 6.64819 13.3142 6.95326 13.3142 7.32959V10.6492H9.53297C9.15664 10.6492 8.85157 10.9543 8.85157 11.3306V20.6251C8.85157 21.0014 9.15664 21.3065 9.53297 21.3065H13.3152V24.6254C13.3152 25.0017 13.6203 25.3068 13.9966 25.3068C14.3729 25.3068 14.678 25.0017 14.678 24.6254V21.3065H17.27V24.6254C17.27 25.0017 17.5751 25.3068 17.9514 25.3068C18.3277 25.3068 18.6328 25.0017 18.6328 24.6254V21.3065H22.4158C22.7921 21.3065 23.0972 21.0014 23.0972 20.6251V15.8597C23.0972 15.4834 22.7921 15.1783 22.4158 15.1783H13.9965C13.6202 15.1783 13.3151 15.4834 13.3151 15.8597C13.3151 16.236 13.6202 16.5411 13.9965 16.5411H21.7344V19.9437H17.9718C17.965 19.9435 17.9582 19.9434 17.9514 19.9434H13.9966C13.9898 19.9434 13.983 19.9435 13.9762 19.9437H10.2144V12.012H22.4158C22.7921 12.012 23.0972 11.7069 23.0972 11.3306C23.0972 10.9543 22.7921 10.6492 22.4158 10.6492H18.6328V7.32959C18.6328 6.95326 18.3277 6.64819 17.9514 6.64819C17.5751 6.64819 17.27 6.95326 17.27 7.32959V10.6488H14.677V7.32959Z M15.9742 2.47119C8.51493 2.47119 2.46802 8.51809 2.46802 15.9773C2.46802 23.4365 8.51493 29.4835 15.9742 29.4835C23.4334 29.4835 29.4803 23.4365 29.4803 15.9773C29.4803 8.5181 23.4334 2.47119 15.9742 2.47119ZM3.83082 15.9773C3.83082 9.27075 9.26758 3.83399 15.9742 3.83399C22.6808 3.83399 28.1175 9.27075 28.1175 15.9773C28.1175 22.6839 22.6808 28.1207 15.9742 28.1207C9.26759 28.1207 3.83082 22.6839 3.83082 15.9773Z" fill="black"/>
</svg>

<svg width="32" height="32" viewBox="0 0 32 32" fill="none" xmlns="http://www.w3.org/2000/svg"><path d="M15.979 32c8.837 0 16-7.163 16-16s-7.163-16-16-16-16 7.163-16 16 7.163 16 16 16z" fill="#E6BC7B"/><path d="M14.677 7.33a.681.681 0 00-1.363 0v3.32H9.533a.681.681 0 00-.681.68v9.295c0 .376.305.681.681.681h3.782v3.32a.681.681 0 001.363 0v-3.32h2.592v3.32a.681.681 0 001.363 0v-3.32h3.783a.681.681 0 00.681-.68V15.86a.681.681 0 00-.681-.682h-8.42a.681.681 0 000 1.363h7.738v3.403h-11.52v-7.932h12.202a.681.681 0 000-1.363h-3.783V7.33a.681.681 0 00-1.363 0v3.32h-2.593V7.33zm1.297-4.859c-7.46 0-13.506 6.047-13.506 13.506 0 7.46 6.047 13.506 13.506 13.506 7.46 0 13.506-6.047 13.506-13.506 0-7.459-6.047-13.506-13.506-13.506zM3.831 15.977c0-6.706 5.437-12.143 12.143-12.143 6.707 0 12.143 5.437 12.143 12.143 0 6.707-5.436 12.144-12.143 12.144-6.706 0-12.143-5.437-12.143-12.144z" fill="#000"/></svg>
